X:1
T:[ID 2-16]
T:[ID 2-16]
T:Bezeichnung standardisiert: Menuett Menuet 6.
T:Urheber unbekannt Erstbeleg: 1767 (Datum in der schriftlichen Quelle) Datum in der hier transkribierten schriftlichen Quelle: 1792
C:Urheber unbekannt
C:Erstbeleg: 1767 (Datum in der schriftlichen Quelle)
C:Datum in der hier transkribierten schriftlichen Quelle: 1792
L:1/8
M:3/4
K:D
V:1 treble 
V:1
 de f2 g2 | a4 f2 | g2 bg e2 | cdec A2 | de f2 g2 | a4 f2 | g2 e2 cA | d6 :: d4 _c2 | B_cdB G2 | %10
 e4 d2 | cdec A2 |"^2)" de f2 g2 | a4 f2 |"^2)" de f2 g2 | a4 f2 |{f} g2 e2 cA | d6 :| %18

